X: 62
T:Scant Of Silver. WI.062
M:2/4
Q:80
S:Wm Irwin, Folio MS, c1850. AGG's Transcription
R:Reel
O:England
A:Lake District
N:A.G.G has written "Is the natural C intended"..well it sounds ok to
N:me..CGP..
Z:vmp.Chris Partington.2005
K:G
Ad2e|dfdf|Ac2d|cece|!
Ad2e|dfdf|g2 a/g/f|ec-ce:|!
|:d/e/f/g/ a2|fd-df|c/d/e/f/ g2|ec-ce|!
d/e/f/g/ a2|fd-df|g2a/g/f|ecce|]
